X: 21191
T: LORD BINNING'S REEL
R: reel
B: K\"ohler's Violin Repository, v.2, 1885 p.119 #1
F: http://www.archive.org/details/klersviolinrepos02rugg
Z: 2012 John Chambers <jc:trillian.mit.edu>
M: C|
L: 1/8
K: Em
uB |\
E/E/E (GA) B2(Ee) | (dB)Ad (FD)AF | GEGB DFAd | BdFA BEE :|
uB |\
eBge ^dfBg | fdBG FADf | eBge dBe^c | (dA)FA (BE)EB |
eBge ^dfB^c | (dB)AG (FA)DF | (GB)Ee ^dfBA | GBAF GEE "_D.C."|]

%%sep 2 1 500

